X:1
T:Jesus Is Risen
T:Jesus Is Risen
T:George S. Schuler
T:William Kendall, 1910
T:Public Domain Courtesy of the Cyber Hymnal™
T:Public Domain Courtesy of the Cyber Hymnal™
C:George S. Schuler
Z:Public Domain
Z:Courtesy of the Cyber Hymnal™
%%score ( 1 2 ) ( 3 4 )
L:1/8
Q:1/4=88
M:4/4
K:Ab
V:1 treble 
V:2 treble 
V:3 bass 
V:4 bass 
V:1
 [A,C] | [CE][CE][CE][CF] [CF] [CE]2 [CA] | [DG][DG][DG][DA] [DB]3 [DE] | %3
w: 1.~It|is a day of glad- ness, This|bless- èd East- er morn, O|
w: 2.~With|joy our voic- es rais- ing, We|join the glad ac- claim, To|
w: 3.~O|tell the East- er sto- ry, How|Je- sus burst the tomb, And|
w: 4.~O|souls that need sal- va- tion, As|far from Christ you stray, Hear|
 [DG][DG][DG][DA] [DB] [DB]2 [Fd] | [Ec]>[DB] [CA][EB] [Ec]3 [Ec] | %5
w: day of ban- ished sad- ness, The|day when hope was born; A|
w: tell His strength a- maz- ing, And|praise His match- less name; For|
w: pierced with shafts of glo- ry Our|night of grief and gloom. No|
w: now His in- vi- ta- tion, Make|this your East- er day; The|
 [Ec][Ec][Fd][Ec] [=Dc] [DF]2 [DB] | [DB][DB][Ec][DB] (B E2) [CE] | %7
w: time of great re- joic- ing, When|men and an- gels sing, * With|
w: in the East- er’s break- ing, Long|cen- tu- ries a- go, * The|
w: more death’s sting shall harm us; No|more we fear the grave; * No|
w: Christ is loud- ly cry- ing, A-|mid earth’s storm and strife, * To|
 [DF][EG][EA][EB] [Ec] [Ee]2 [Fd] | [Ec][Ec][Ec][DB] [CA]4 ||[M:3/4][Q:1/4=150] [CE]6-"^Refrain" | %10
w: loud ho- san- nas voic- ing The|praise of Christ the King.||
w: Son of God was wak- ing Tri-|umph- ant o’er His foe.|Je-|
w: more can sin a- larm us; The|ris- en Christ doth save.||
w: souls in tres- pass dy- ing— “I|bring a- bun- dant life.”||
 E2 F2 E2 | [CA]6 | [Ec]4 [_Gc]2 | [Fd]6- | d2 A2 [_FB]2 | ([Ec]6- | c4) x2 | [Ee]6- | e2 d2 B2 | %19
w: |||||||||
w: * sus is|en!|O swell|the|* re- *|frain;||Je-|* sus the|
w: |||||||||
w: |||||||||
 [Fd]4 [Ec]2 | [Ec]4 z2 | [=Dc]6- | c2 B2 c2 | B6- | [EB]4 D2 | [CE]6- | E2 F2 E2 | [CA]6 | %28
w: |||||||||
w: Cru- ci-|fied|liv-|* eth a-|gain!||Grave,|* thou art|con-|
w: |||||||||
w: |||||||||
 [Ec]4 [_Gc]2 | [Fd]6- | [Fd]2 [FA]2 [_FB]2 | [Ec]6- | [Ec]4 z2 | [_Ge]6 | (d2 c2) B2 | [Ee]6 | %36
w: ||||||||
w: quered; O|Death,|* thou art|vain!||Je-|sus * is|ris-|
w: ||||||||
w: ||||||||
 [CA]4 [DB]2 | [Ec]6 | [Ec]4 [DB]2 | [CA]6- | [CA]4 z |] %41
w: |||||
w: en, and|liv-|eth a-|gain!||
w: |||||
w: |||||
V:2
 x | x8 | x8 | x8 | x8 | x8 | x4 C3 x | x8 | x8 ||[M:3/4] x6 | C6- | x6 | x6 | x6 | _F6 | x6 | %16
 (EABcd=d) | x6 | E6 | x6 | x6 | x6 | D6 | G2 F2 E2- | x6 | x6 | C6 | x6 | x6 | x6 | x6 | x6 | x6 | %33
 x6 | F6 | x6 | x6 | x6 | x6 | x6 | x5 |] %41
V:3
 [A,,E,] | [A,,A,][A,,A,][A,,A,][A,,A,] [A,,A,] [A,,A,]2 [A,,A,] | %2
 [E,B,][E,B,][E,B,][E,F,] [E,G,]3 [E,G,] | [E,B,][E,B,][E,B,][E,F,] [E,G,] [E,G,]2 [E,G,] | %4
 [E,G,]>[E,G,] [F,A,][E,G,] A,3 A, | [F,=A,][F,A,][F,A,][F,A,] [B,,_A,] [B,,A,]2 [B,,A,] | %6
 [E,G,][E,G,][E,G,][E,G,] [A,,A,]3 [A,,A,] | [D,A,][B,,B,][C,A,][E,G,] A, [C,A,]2 [D,A,] | %8
 [E,A,][E,A,][E,G,][E,G,] [A,,A,]4 || (A,,2 [E,A,]2 [E,A,]2 | A,,2) [E,A,]2 [E,A,]2 | %11
 (A,,2 [E,A,]2 [E,A,]2) | (A,,2 [E,A,]2) [E,A,]2 | (A,,2 [F,A,]2 [F,A,]2 | A,,2) [F,A,]2 [_F,A,]2 | %15
 (A,,2 [E,A,]2 [E,A,]2 | A,,2 [E,A,]2 [E,A,]2) | (B,,2 [E,G,]2 [E,G,]2 | E,2) [G,B,]2 [G,B,]2 | %19
 (A,,2 [E,A,]2) [E,A,]2 | (A,,2 [E,A,]2 [E,A,]2) | (B,,2 [A,B,]2 [A,B,]2 | B,,2) [A,B,]2 [A,B,]2 | %23
 B,2 A,2 G,2- | G,4 B,,2 | A,,2 [E,A,]2 [E,A,]2 | A,,2 [E,A,]2 [E,A,]2 | (A,,2 [E,A,]2 [E,A,]2) | %28
 (A,,2 [E,A,]2) [E,A,]2 | (A,,2 [F,A,]2 [F,A,]2 | A,,2) [F,A,]2 [_F,A,]2 | (A,,2 [E,A,]2 [E,A,]2 | %32
 A,,2 [E,A,]2 [E,A,]2) | [=A,,C]6 | ([B,,B,]2 [C,=A,]2) [D,B,]2 | (C,2 [E,A,]2 [E,A,]2) | %36
 (F,2 [F,A,]2) [_F,A,]2 | (E,2 A,2 A,2) | (E,2 F,2) G,2 | (A,2 E,2 C,2 | A,,4) z |] %41
V:4
 x | x8 | x8 | x8 | x4 A,3 A, | x8 | x8 | x4 A, x3 | x8 || x6 | x6 | x6 | x6 | x6 | x6 | x6 | x6 | %17
 x6 | x6 | x6 | x6 | x6 | x6 | E,6 | D,2 C,2 x2 | x6 | x6 | x6 | x6 | x6 | x6 | x6 | x6 | x6 | x6 | %35
 x6 | x6 | x6 | x6 | x6 | x5 |] %41

